X:123
T:Deep Elem Blues
C:Andy Hall - Sound of the Slide Guitar
N:mando: Jesse Cobb - Transcribed by Philippe Colleu
R:bluegrass
L:1/8
Q:1/4=200
M:4/4
K:C
"(105 bpm)"z7/1^F | "E"E2 G/z/^G B2 ^cc/z/ | d^c B2 G2 ^FE | DE ^FD EB, A,G, | 
^G,4 zG, B,D | E^F ^GA B^c de | ^fa g/z/^g ed Ba/z/ | "E7"bb ^gb/^c'/ d'd' c'2 | 
b2 ab ge b[gd] | "A"[^g6e6] (3e=gb | d'c'/z/ ^c'a g^f ed | c/z/^c AG E^D/z/ =DC/z/ | 
^CE z_B, CE zG | "E"_Bd ed ea g/z/^g | ed Bd/z/ ee (3[ed]^d[^fd] | "B7"[^f/^d/]z/^c BA ^F2 AF | 
E^F D^D B,_B, zA, | zB, ^D2 ^FA F2 | B^F B2 d^d e2 | "E"[e3e3]e ze d^c | B^G/z/ Be z^f2[d'f] | 
"B7"z[^c'e] z[bd] [a2^c2] [g/B/]z/^g | ed B_B AG ^Ge | "E"E8 | 


